kwork_juristConsalt/img/svg/years.svg

<svg width="180" height="180" fill="none" xmlns="http://www.w3.org/2000/svg"><g clip-path="url(#clip0)"><rect width="180" height="180" rx="90" fill="#fff"/><path fill-rule="evenodd" clip-rule="evenodd" d="M179.378 251.461c-12.416 1.767-24.338 2.066-36.845 2.711-17.807.92-40.022 13.797-52.532 1.904-12.484-11.868 2.612-33.321 1.588-50.334-.787-13.078-9.014-24.947-6.903-37.956 2.226-13.718 7.069-28.939 19.052-36.899 11.955-7.942 28.254-.571 42.299-3.855 13.388-3.13 25.316-20.207 37.7-14.848 13.289 5.749 10.045 25.572 16.296 38.209 3.973 8.031 11.111 14.062 13.787 22.598 2.746 8.761.887 17.912 1.777 27.06 1.423 14.619 13.723 30.684 5.041 43.008-8.064 11.445-27.131 6.392-41.26 8.402z" fill="#1C3C89"/></g><defs><clipPath id="clip0"><rect width="180" height="180" rx="90" fill="#fff"/></clipPath></defs></svg>

<svg width="180" height="180" viewBox="0 0 180 180" fill="none" xmlns="http://www.w3.org/2000/svg">
<g clip-path="url(#clip0)">
<rect width="180" height="180" rx="90" fill="white"/>
<path fill-rule="evenodd" clip-rule="evenodd" d="M179.378 251.461C166.962 253.228 155.04 253.527 142.533 254.172C124.726 255.092 102.511 267.969 90.0011 256.076C77.517 244.208 92.6135 222.755 91.5892 205.742C90.8019 192.664 82.5746 180.795 84.6858 167.786C86.9122 154.068 91.7547 138.847 103.738 130.887C115.693 122.945 131.992 130.316 146.037 127.032C159.425 123.902 171.353 106.825 183.737 112.184C197.026 117.933 193.782 137.756 200.033 150.393C204.006 158.424 211.144 164.455 213.82 172.991C216.566 181.752 214.707 190.903 215.597 200.051C217.02 214.67 229.32 230.735 220.638 243.059C212.574 254.504 193.507 249.451 179.378 251.461Z" fill="#1C3C89"/>
</g>
<defs>
<clipPath id="clip0">
<rect width="180" height="180" rx="90" fill="white"/>
</clipPath>
</defs>
</svg>
